X: 15317
T: Give It The Lash
R: reel
M: 4/4
K: Adorian
A2eA AGFG|G2dG GEDG|A2ag ageg|gedB cABG|
A2eA AGFG|G2dG GEDG|A2ag ageg|gedB cA~A2|
eaag gaag|agfg defd|eaag abag|fdef g4|
(3efg ab c'bag|fdef ~g3e|dggf g2bg|d2af gedB|

